X:1
T:C Major William Billings, 1770
T:Isaac Watts, 1719 (Psalm 146)   88. 88. 88.
T:Holden No copyright. 
%%score [ 1 2 3 4 ]
L:1/8
M:3/4
K:C
V:1 treble nm="Treble" snm="Tr."
V:2 treble nm="Counter" snm="C."
V:3 treble-8 nm="Tenor" snm="T."
V:4 bass nm="Bass" snm="B."
V:1
 c2 | (e>d c2) c2 | (B>c d2) e2 | d4 c2 | B4 B2 | c4 e2 | d4 c2 | (f2 e2) d2 | e4 e2 | e4 c2 | %10
w: 1.~I'll|praise * * my|Mak- * * er|with my|breath, And|when my|voice is|lost * in|death, Praise|shall em-|
w: 2.~Why|should * * I|make * * a|man my|trust? Prin-|ces must|die and|turn * to|dust; Vain|is the|
 (B2 c2) c2 | d4 c2 | B4 B2 | c4 c2 | B4 d2 | e4 d2 | [Bd]4 [ce]2 | e4 c2 | B4 c2 | d2 d2 B2- | %20
w: ploy * my|nob- ler|powers; My|days of|praise shall|ne'er be|past, While|life, and|thought, and|be- ing last,~|
w: help * of|flesh and|blood; Their|breath de-|parts, their|pomp and|power And|thoughs all|van- ish|in an hour,~|
 B4 B2 | (c>B A2) G2 | (c2 d2) e2 | (d2 c2) [Bd]2 | [ce]6 |] %25
w: * Or|im- * * mor-|tal- * i-|ty * en-|dures.|
w: * Nor|can * * they|make * their|prom- * ise|good.|
V:2
 G2 | G4 G2 | G4 E2 | A4 G2 | G4 G2 | G4 E2 | A4 G2 | A4 G2 | G4 G2 | G4 G2 | (G2 A2) G2 | A4 G2 | %12
w: 3.~Hap-|py the|man whose|hopes re-|ly On|Is- rael's|God: He|made the|sky, And|earth and|seas, * with|all their|
w: 4.~The|Lord hath|eyes to|give the|blind; The|Lord sup-|ports the|sink- ing|mind; He|sends the|labor- * ing|con- science|
 G4 G2 | G4 E2 | G4 G2 | E4 F2 | [DG]4 G2 | G4 G2 | G4 G2 | A2 A2 G2- | G4 G2 | (G2 F2) E2 | %22
w: train; His|truth for|ev- er|stands se-|cure; He|saves th'op-|pressed, He|feeds the poor,~|* And|none * shall|
w: peace; He|helps the|stran- ger|in dis-|tress, The|wid- ow|abd the|fath- er- less,~|* And|grants * the|
 G4 E2 | A4 G2 | [EG]6 |] %25
w: find His|prom- ise|vain.|
w: pris- oner|sweet re-|lease.|
V:3
 c2 | c4 e2 | d4 c2 | f4 e2 | d4 d2 | e4 c2 | f4 e2 | (d2 c2) B2 | c4 c2 | (G2 c2) e2 | %10
w: 5.~He|loves His|saints, He|knows them|well, But|turns the|wick- ed|down * to|hell; Thy|God, * O|
w: 6.~I'll|praise Him|while He|lends me|breath; And|when my|voice is|lost * in|death, Praise|shall * em-|
 (d>e f2) g2 | f4 e2 | d4 d2 | e4 g2 | (e2 d2) B2 | c4 A2 | G4 G2 | c4 e2 | d4 c2 | fe dc d2- | %20
w: Zi- * * on!|ev- er|reigns: Let|eve- ry|tongue, * let|eve- ry|age, In|this ex-|al- ted|work * en- * gage;~|
w: ploy * * my|nob- ler|powers: My|days of|praise * shall|ne'er be|past, While|life and|thought and|be- * ing * last,~|
 d4 e2 | (e2 f2) g2 | (e2 d2) c2 | (f2 e2) d2 | c6 |] %25
w: * Praise|Him * in|ev- * er-|last- * ing|strains.|
w: * Or|im- * mor-|tal- * i-|ty * en-|dures.|
V:4
 C,2 | C,4 C,2 | [G,,G,]4 [A,,A,]2 | [F,,A,,F,]4 C,2 | [G,,G,]4 [G,,G,]2 | C,4 C,2 | D,4 [G,,E,]2 | %7
 [F,,F,]4 [G,,G,]2 | C,4 C,2 | C,4 C,2 | (G,2 F,2) E,2 | (F,>E, D,2) C,2 | [G,,G,]4 [G,,G,]2 | %13
 C,4 C,2 | (E,>F, G,2) [G,,G,]2 | C,4 D,2 | G,,4 C,2 | C,4 C,2 | [G,,G,]4 [G,,E,]2 | %19
 [D,,D,]2 [D,,D,]2 [G,,G,]2- | [G,,G,]4 [G,,G,]2 | (C,2 D,2) [G,,E,]2 | %22
 ([E,,E,]>[F,,F,] [G,,G,]2) [A,,A,]2 | [F,,F,]4 [G,,G,]2 | [C,,C,]6 |] %25

